src/icons/reset-wallet.svg

<svg viewBox="0 0 25 24" fill="none" xmlns="http://www.w3.org/2000/svg">
<path d="M22.6722 10.9517H21.4542C20.9409 6.54084 17.113 3 12.5021 3C9.95303 3 7.63887 4.11358 6.03809 5.85355C5.6118 6.27115 5.6292 6.82794 5.9772 7.14983C6.33389 7.48043 6.84718 7.48043 7.28217 7.08023C8.57845 5.67956 10.4402 4.80087 12.5021 4.80087C16.1734 4.80087 19.1401 7.48913 19.636 10.9517H18.3049C17.635 10.9517 17.4523 11.4476 17.8438 11.9869L19.9231 14.9275C20.245 15.3625 20.7321 15.3712 21.0453 14.9275L23.1333 11.9957C23.5248 11.4476 23.3508 10.9517 22.6722 10.9517ZM12.5108 13.4311C12.9893 13.4311 13.259 13.1614 13.2764 12.6568L13.4069 8.47221C13.4243 7.95892 13.0415 7.59352 12.5021 7.59352C11.9627 7.59352 11.5886 7.95022 11.606 8.46351L11.7278 12.6655C11.7452 13.1614 12.0236 13.4311 12.5108 13.4311ZM2.33196 13.0483H3.55864C4.07193 17.4592 7.89986 21 12.5021 21C15.0685 21 17.3827 19.8777 18.9835 18.1377C19.4011 17.7202 19.3837 17.1634 19.0357 16.8415C18.679 16.5109 18.1744 16.5109 17.7307 16.9198C16.4518 18.3204 14.5901 19.1991 12.5021 19.1991C8.83945 19.1991 5.8728 16.5109 5.37691 13.0483H6.69928C7.36047 13.0483 7.55187 12.5524 7.16038 12.0131L5.07241 9.0725C4.75922 8.63751 4.27202 8.62881 3.95883 9.0725L1.87086 12.0043C1.47067 12.5524 1.65337 13.0483 2.33196 13.0483ZM12.5108 16.3195C13.0763 16.3195 13.5374 15.9106 13.5374 15.3625C13.5374 14.8057 13.0763 14.4055 12.5108 14.4055C11.9453 14.4055 11.4842 14.8144 11.4842 15.3625C11.4842 15.9106 11.954 16.3195 12.5108 16.3195Z" fill="currentColor"/>
</svg>

<svg viewBox="0 0 25 24" fill="none" xmlns="http://www.w3.org/2000/svg"><path d="M22.672 10.952h-1.218C20.941 6.54 17.113 3 12.502 3a8.795 8.795 0 0 0-6.464 2.854c-.426.417-.409.974-.06 1.296.356.33.87.33 1.304-.07a7.097 7.097 0 0 1 5.22-2.28 7.178 7.178 0 0 1 7.134 6.152h-1.331c-.67 0-.853.496-.461 1.035l2.08 2.94c.321.436.808.444 1.121 0l2.088-2.931c.392-.548.218-1.044-.46-1.044zm-10.161 2.48c.478 0 .748-.27.765-.775l.13-4.185c.018-.513-.365-.878-.904-.878-.54 0-.913.356-.896.87l.122 4.201c.017.496.296.766.783.766zm-10.179-.384h1.227C4.072 17.46 7.899 21 12.502 21a8.813 8.813 0 0 0 6.481-2.862c.418-.418.4-.975.053-1.297-.357-.33-.862-.33-1.305.079a7.045 7.045 0 0 1-5.229 2.28 7.175 7.175 0 0 1-7.125-6.152h1.322c.661 0 .853-.496.461-1.035l-2.088-2.94c-.313-.435-.8-.444-1.113 0L1.87 12.003c-.4.548-.218 1.044.461 1.044zm10.179 3.272c.565 0 1.026-.41 1.026-.957 0-.557-.46-.957-1.026-.957-.566 0-1.027.408-1.027.957 0 .548.47.957 1.027.957z" fill="currentColor"/></svg>
